packages/kaspersky-hexa-ui-icons/src/iconsSVGs/48/SettingsControl.svg

<svg width="48" height="48" viewBox="0 0 48 48" fill="none" xmlns="http://www.w3.org/2000/svg">
<path fill-rule="evenodd" clip-rule="evenodd" d="M36.2253 30.6153L34.1453 32.7153L31.5453 30.1453C38.0801 22.8523 37.6209 11.6823 30.5096 4.95018C23.3982 -1.78189 12.2198 -1.62879 5.29552 5.29552C-1.62879 12.2198 -1.78189 23.3982 4.95018 30.5096C11.6823 37.6209 22.8523 38.0801 30.1453 31.5453L32.7153 34.1453L30.6153 36.2453L42.5353 48.1453L48.1353 42.5453L36.2253 30.6153ZM18.1453 34.1453C9.30877 34.1453 2.14532 26.9819 2.14532 18.1453C2.14532 9.30877 9.30877 2.14532 18.1453 2.14532C26.9819 2.14532 34.1453 9.30877 34.1453 18.1453C34.1453 22.3888 32.4596 26.4585 29.459 29.459C26.4585 32.4596 22.3888 34.1453 18.1453 34.1453ZM33.4453 36.2253L36.2253 33.4453L45.3053 42.5353L42.5353 45.3053L33.4453 36.2253ZM18.1453 14.1453C15.9362 14.1453 14.1453 15.9362 14.1453 18.1453C14.1453 20.3545 15.9362 22.1453 18.1453 22.1453C20.3545 22.1453 22.1453 20.3545 22.1453 18.1453C22.1453 15.9362 20.3545 14.1453 18.1453 14.1453ZM18.1453 20.1453C17.0408 20.1453 16.1453 19.2499 16.1453 18.1453C16.1453 17.0408 17.0408 16.1453 18.1453 16.1453C19.2499 16.1453 20.1453 17.0408 20.1453 18.1453C20.1453 19.2499 19.2499 20.1453 18.1453 20.1453ZM27.1453 14.7853C27.072 14.592 26.992 14.402 26.9053 14.2153L28.3553 11.3353L24.9753 8.00532L22.1453 9.45532C21.9587 9.36866 21.7687 9.28866 21.5753 9.21532L20.5053 6.14532H15.8053L14.8053 9.20532L14.2353 9.44532L11.3353 8.00532L8.00532 11.3353L9.45532 14.2153C9.36866 14.4087 9.28866 14.5987 9.21532 14.7853L6.14532 15.8053V20.5053L9.20532 21.5053C9.27866 21.6987 9.35866 21.8887 9.44532 22.0753L8.00532 24.9753L11.3353 28.3053L14.2153 26.8553C14.4087 26.942 14.5987 27.022 14.7853 27.0953L15.7853 30.1553H20.4853L21.4853 27.0953C21.6787 27.022 21.8687 26.942 22.0553 26.8553L24.9353 28.3053L28.2653 24.9753L26.8553 22.1453C26.942 21.9587 27.022 21.7687 27.0953 21.5753L30.1553 20.5753V15.8753L27.1453 14.7853ZM28.1453 19.0653L25.5053 19.9453L25.3553 20.4253C25.2214 20.8429 25.0507 21.2479 24.8453 21.6353L24.6153 22.0853L25.8553 24.5853L24.5753 25.8653L22.0753 24.6253L21.6253 24.8553C21.2379 25.0607 20.8329 25.2314 20.4153 25.3653L19.9353 25.5153L19.0653 28.1453H17.2453L16.3653 25.5053L15.8753 25.3553C15.4616 25.2195 15.0602 25.0489 14.6753 24.8453L14.2253 24.6153L11.7253 25.8553L10.4453 24.5853L11.6853 22.0853L11.4553 21.6353C11.2499 21.2479 11.0792 20.8429 10.9453 20.4253L10.7953 19.9453L8.14532 19.0653V17.2453L10.7853 16.3653L10.9353 15.8753C11.0711 15.4616 11.2417 15.0602 11.4453 14.6753L11.6753 14.2253L10.4353 11.7253L11.7153 10.4453L14.2153 11.6853L14.6653 11.4553C15.0502 11.2517 15.4516 11.0811 15.8653 10.9453L16.3553 10.7953L17.2453 8.14532H19.0653L19.9453 10.7853L20.4253 10.9353C20.8429 11.0692 21.2479 11.2399 21.6353 11.4453L22.0853 11.6753L24.5853 10.4353L25.8653 11.7153L24.6253 14.2153L24.8553 14.6653C25.0589 15.0502 25.2295 15.4516 25.3653 15.8653L25.5153 16.3553L28.1453 17.2453V19.0653Z"  fill="currentColor"/>
</svg>

<svg xmlns="http://www.w3.org/2000/svg" width="48" height="48" fill="none" viewBox="0 0 48 48"><path fill="currentColor" fill-rule="evenodd" d="m36.2253 30.6153-2.08 2.1-2.6-2.57c6.5348-7.293 6.0756-18.463-1.0357-25.1951s-18.2898-6.579-25.214.3453c-6.9244 6.9243-7.0775 18.1027-.3454 25.2141s17.9021 7.5705 25.1951 1.0357l2.57 2.6-2.1 2.1 11.92 11.9 5.6-5.6zm-18.08 3.53c-8.8365 0-16-7.1634-16-16 0-8.8365 7.1635-16 16-16s16 7.1635 16 16a15.9997 15.9997 0 0 1-16 16m15.3 2.08 2.78-2.78 9.08 9.09-2.77 2.77zm-15.3-22.08c-2.2091 0-4 1.7909-4 4s1.7909 4 4 4 4-1.7908 4-4c0-2.2091-1.7908-4-4-4m0 6c-1.1045 0-2-.8954-2-2s.8955-2 2-2 2 .8955 2 2-.8954 2-2 2m9-5.36a8.6 8.6 0 0 0-.24-.57l1.45-2.88-3.38-3.33-2.83 1.45a8.6 8.6 0 0 0-.57-.24l-1.07-3.07h-4.7l-1 3.06-.57.24-2.9-1.44-3.33 3.33 1.45 2.88a13 13 0 0 0-.24.57l-3.07 1.02v4.7l3.06 1q.1101.2901.24.57l-1.44 2.9 3.33 3.33 2.88-1.45q.2901.13.57.24l1 3.06h4.7l1-3.06a8.5 8.5 0 0 0 .57-.24l2.88 1.45 3.33-3.33-1.41-2.83a8.5 8.5 0 0 0 .24-.57l3.06-1v-4.7zm1 4.28-2.64.88-.15.48a7.4 7.4 0 0 1-.51 1.21l-.23.45 1.24 2.5-1.28 1.28-2.5-1.24-.45.23a7.4 7.4 0 0 1-1.21.51l-.48.15-.87 2.63h-1.82l-.88-2.64-.49-.15a7.7 7.7 0 0 1-1.2-.51l-.45-.23-2.5 1.24-1.28-1.27 1.24-2.5-.23-.45a7.4 7.4 0 0 1-.51-1.21l-.15-.48-2.65-.88v-1.82l2.64-.88.15-.49a7.7 7.7 0 0 1 .51-1.2l.23-.45-1.24-2.5 1.28-1.28 2.5 1.24.45-.23a7.7 7.7 0 0 1 1.2-.51l.49-.15.89-2.65h1.82l.88 2.64.48.15a7.4 7.4 0 0 1 1.21.51l.45.23 2.5-1.24 1.28 1.28-1.24 2.5.23.45a7.7 7.7 0 0 1 .51 1.2l.15.49 2.63.89z" clip-rule="evenodd"/></svg>
